offer/images/check.svg

<svg height="18" viewBox="0 0 18 18" width="18" xmlns="http://www.w3.org/2000/svg"><path d="m167.718708 7367.25002c0 1.57031-.392578 3.02343-1.177732 4.35936-.785154 1.33594-1.845699 2.39648-3.181633 3.18163-1.335934.78516-2.789056 1.17774-4.359364 1.17774-1.570309 0-3.023431-.39258-4.359365-1.17774-1.335934-.78515-2.396479-1.84569-3.181633-3.18163-.785154-1.33593-1.177732-2.78905-1.177732-4.35936s.392578-3.02343 1.177732-4.35937c.785154-1.33593 1.845699-2.39648 3.181633-3.18163 1.335934-.78516 2.789056-1.17773 4.359365-1.17773 1.570308 0 3.02343.39257 4.359364 1.17773 1.335934.78515 2.396479 1.8457 3.181633 3.18163.785154 1.33594 1.177732 2.78906 1.177732 4.35937zm-9.738258 4.60545 6.468734-6.46873c.117187-.09375.175781-.22266.175781-.38672s-.058594-.29297-.175781-.38672l-.773435-.80859c-.117187-.11719-.251953-.17578-.404296-.17578s-.287109.05859-.404296.17578l-5.273425 5.27343-2.460932-2.46093c-.117187-.11719-.251952-.17579-.404296-.17579-.152343 0-.287109.0586-.404296.17579l-.773435.80859c-.117187.09375-.175781.22265-.175781.38671 0 .16407.058594.29297.175781.38672l3.656241 3.65624c.09375.11719.222656.17578.386718.17578s.292968-.05859.386718-.17578z" fill="#23ae3b" fill-rule="evenodd" transform="translate(-150 -7358)"/></svg>

<?xml version="1.0" encoding="UTF-8"?>
<svg width="18px" height="18px" viewBox="0 0 18 18" version="1.1" xmlns="http://www.w3.org/2000/svg" xmlns:xlink="http://www.w3.org/1999/xlink">
    <!-- Generator: Sketch 52.2 (67145) - http://www.bohemiancoding.com/sketch -->
    <title>check-circle</title>
    <desc>Created with Sketch.</desc>
    <g id="Page-1" stroke="none" stroke-width="1" fill="none" fill-rule="evenodd">
        <g id="offer" transform="translate(-150.000000, -7358.000000)" fill="#23AE3B">
            <path d="M167.718708,7367.25002 C167.718708,7368.82033 167.32613,7370.27345 166.540976,7371.60938 C165.755822,7372.94532 164.695277,7374.00586 163.359343,7374.79101 C162.023409,7375.57617 160.570287,7375.96875 158.999979,7375.96875 C157.42967,7375.96875 155.976548,7375.57617 154.640614,7374.79101 C153.30468,7374.00586 152.244135,7372.94532 151.458981,7371.60938 C150.673827,7370.27345 150.281249,7368.82033 150.281249,7367.25002 C150.281249,7365.67971 150.673827,7364.22659 151.458981,7362.89065 C152.244135,7361.55472 153.30468,7360.49417 154.640614,7359.70902 C155.976548,7358.92386 157.42967,7358.53129 158.999979,7358.53129 C160.570287,7358.53129 162.023409,7358.92386 163.359343,7359.70902 C164.695277,7360.49417 165.755822,7361.55472 166.540976,7362.89065 C167.32613,7364.22659 167.718708,7365.67971 167.718708,7367.25002 Z M157.98045,7371.85547 L164.449184,7365.38674 C164.566371,7365.29299 164.624965,7365.16408 164.624965,7365.00002 C164.624965,7364.83596 164.566371,7364.70705 164.449184,7364.6133 L163.675749,7363.80471 C163.558562,7363.68752 163.423796,7363.62893 163.271453,7363.62893 C163.11911,7363.62893 162.984344,7363.68752 162.867157,7363.80471 L157.593732,7369.07814 L155.1328,7366.61721 C155.015613,7366.50002 154.880848,7366.44142 154.728504,7366.44142 C154.576161,7366.44142 154.441395,7366.50002 154.324208,7366.61721 L153.550773,7367.4258 C153.433586,7367.51955 153.374992,7367.64845 153.374992,7367.81251 C153.374992,7367.97658 153.433586,7368.10548 153.550773,7368.19923 L157.207014,7371.85547 C157.300764,7371.97266 157.42967,7372.03125 157.593732,7372.03125 C157.757794,7372.03125 157.8867,7371.97266 157.98045,7371.85547 Z" id="check-circle"></path>
        </g>
    </g>
</svg>
